X:1
T:Title
%%score { ( 1 4 ) | ( 2 3 ) }
L:1/8
M:9/8
K:F
V:1 treble nm="Grand Piano"
V:4 treble 
V:2 bass 
V:3 bass 
V:1
 z3 z3[Q:1/4=117] C2 C | F3- F2 F/-(3:2:2F/A/4 [B,EG]F[CEG] | [CFA]3 [Fc]3 [Fd]2 [Fd] | %3
 c3- c2 z/ (3:2:2z/ A/4 [B,EG]F[B,EG] | [A,F]6 [A,C]2 [A,C] | [CF]6 z3 | [CFA]3 [Fc]3 [Ff][Ge]d | %7
 c3- c2 G GA[DF=B] |[M:3/4] [CEc]6 |[M:3/8] [CAc][FA][B,GB] |[M:9/8] [CAc]3 [Af]3 [CAc][FA][B,GB] | %11
 [CAc]3 [Af]3 F-[DFG][CFA] | [B,FB]3- [B,FB]2 [CFA] .[DFG]2 [DF] | [FA]3 [EG]3 A2 A | %14
 A3- A2 A BAB | c6 [Ff]2 [Gf] | [Af]3- [Af]2 [Fc] .[Ec]2 [B,EG] |[M:3/4] [F,A,F]6 |] %18
V:2
 z3 z3 [F,A,]2 [F,A,] | [F,A,C]3- [F,A,C]2 [F,A,C] z A,C, | F,3 [F,A,]3 [B,,B,]2 [D,B,] | %3
 [F,A,F]3- [F,A,F]2 [F,A,] z A,C, | F,6 F,2 F, | F,3 F,2 F, z A,C, | %6
 F,3 [F,A,]3 [D,A,][E,C][K:treble][F,A,F] | z3 z3 .=B,3[K:bass] |[M:3/4] C,6 |[M:3/8] z A,F, | %10
[M:9/8] F,3 [F,C]3 z A,F, | F,3 [F,C]3 A,,B,,C, | D,3- D,2 C, z AB,, | %13
 [C,C]3 [C,C]3[K:treble] [F,CF]2 [F,CF] | [F,CF]3- [F,CF]2 [F,CF] [G,CE]2 [G,CE] | %15
 [A,CF]6[K:bass] [D,A,]2 [D,=B,] | [C,C]3- [C,C]2 [C,A,] z[K:treble] B[K:bass]C, |[M:3/4] F,,6 |] %18
V:3
 x9 | z3 z3 .C,3 | x9 | z3 z3 .C,3 | x9 | z3 z3 .C,3 | x8[K:treble] x | %7
 [G,E]3- [G,E]2 [G,CE] [G,F]-[G,CF][K:bass]G,, |[M:3/4] x6 |[M:3/8] F,2 z |[M:9/8] z3 z3 .F,3 | %11
 x9 | z3 z3 .B,,3 | x6[K:treble] x3 | x9 | x6[K:bass] x3 | z3 z3 .[C,G,]3[K:treble][K:bass] | %17
[M:3/4] x6 |] %18
V:4
 x9 | x9 | x9 | z3 z2 F z3 | x9 | A,3 A,2 [A,CF] [B,EG]F[CEG] | x9 | x9 |[M:3/4] x6 |[M:3/8] x3 | %10
[M:9/8] x9 | z3 z3 .C3 | x9 | x9 | x9 | x9 | x9 |[M:3/4] x6 |] %18

